build/images/icons-category/icon-health.svg

<svg width="34" height="32" viewBox="0 0 34 32" fill="none" xmlns="http://www.w3.org/2000/svg">
<path d="M9.33319 14.8571V12.5714H6.99989V14.8571C6.99989 15.0087 6.93843 15.154 6.82904 15.2612C6.71964 15.3684 6.57127 15.4286 6.41657 15.4286H4.08327V17.7143H6.41657C6.57127 17.7143 6.71964 17.7745 6.82904 17.8817C6.93843 17.9888 6.99989 18.1342 6.99989 18.2857V20.5714H9.33319V18.2857C9.33319 18.1342 9.39464 17.9888 9.50404 17.8817C9.61343 17.7745 9.7618 17.7143 9.91651 17.7143H12.2498V15.4286H9.91651C9.7618 15.4286 9.61343 15.3684 9.50404 15.2612C9.39464 15.154 9.33319 15.0087 9.33319 14.8571Z" fill="#025BB1"/>
<path d="M15.1664 16.5714C15.1664 15.2152 14.7559 13.8895 13.9867 12.7618C13.2176 11.6342 12.1243 10.7553 10.8453 10.2363C9.56622 9.71725 8.15877 9.58146 6.80093 9.84604C5.44308 10.1106 4.19582 10.7637 3.21687 11.7227C2.23792 12.6817 1.57124 13.9035 1.30115 15.2337C1.03106 16.5638 1.16968 17.9426 1.69948 19.1955C2.22929 20.4485 3.12648 21.5195 4.27761 22.2729C5.42873 23.0264 6.78209 23.4286 8.16654 23.4286C10.0225 23.4271 11.8021 22.7041 13.1145 21.4185C14.4269 20.1329 15.1649 18.3896 15.1664 16.5714ZM10.4998 18.8571V21.1429C10.4998 21.2944 10.4384 21.4398 10.329 21.5469C10.2196 21.6541 10.0712 21.7143 9.91651 21.7143H6.41657C6.26186 21.7143 6.11349 21.6541 6.00409 21.5469C5.8947 21.4398 5.83324 21.2944 5.83324 21.1429V18.8571H3.49994C3.34524 18.8571 3.19687 18.7969 3.08747 18.6898C2.97808 18.5826 2.91662 18.4373 2.91662 18.2857V14.8571C2.91662 14.7056 2.97808 14.5602 3.08747 14.4531C3.19687 14.3459 3.34524 14.2857 3.49994 14.2857H5.83324V12C5.83324 11.8484 5.8947 11.7031 6.00409 11.5959C6.11349 11.4888 6.26186 11.4286 6.41657 11.4286H9.91651C10.0712 11.4286 10.2196 11.4888 10.329 11.5959C10.4384 11.7031 10.4998 11.8484 10.4998 12V14.2857H12.8331C12.9878 14.2857 13.1362 14.3459 13.2456 14.4531C13.355 14.5602 13.4165 14.7056 13.4165 14.8571V18.2857C13.4165 18.4373 13.355 18.5826 13.2456 18.6898C13.1362 18.7969 12.9878 18.8571 12.8331 18.8571H10.4998Z" fill="#025BB1"/>
<path d="M14.5831 11.64V6.85714C14.5822 6.55432 14.459 6.26415 14.2404 6.05002C14.0218 5.83589 13.7256 5.71519 13.4165 5.71429C13.1077 5.71653 12.8123 5.83766 12.594 6.0515C12.3757 6.26534 12.2521 6.55473 12.2498 6.85714V9.65143C13.1482 10.1648 13.9397 10.8395 14.5831 11.64Z" fill="#025BB1"/>
<path d="M33.9261 14.3314L25.2054 25.3657C25.1248 25.4646 25.0815 25.5877 25.0829 25.7143V27.4286H14.5831V25.7143C14.5838 25.6073 14.5535 25.5022 14.4956 25.4114L13.539 23.9086C13.399 23.6743 13.2706 23.4629 13.1481 23.2629C13.0898 23.1714 13.049 23.0971 12.9965 23.0114C14.4559 21.968 15.5189 20.478 16.0175 18.7768C16.5161 17.0755 16.4219 15.2601 15.7498 13.6171V4C15.7498 3.6969 15.8727 3.40621 16.0915 3.19188C16.3102 2.97755 16.607 2.85714 16.9164 2.85714C17.2258 2.85714 17.5226 2.97755 17.7413 3.19188C17.9601 3.40621 18.083 3.6969 18.083 4V15.4286H19.2497V1.14286C19.2497 0.839753 19.3726 0.549062 19.5914 0.334735C19.8102 0.120408 20.1069 0 20.4163 0C20.7258 0 21.0225 0.120408 21.2413 0.334735C21.4601 0.549062 21.583 0.839753 21.583 1.14286V15.4286H22.7496V4C22.7496 3.6969 22.8726 3.40621 23.0913 3.19188C23.3101 2.97755 23.6069 2.85714 23.9163 2.85714C24.2257 2.85714 24.5224 2.97755 24.7412 3.19188C24.96 3.40621 25.0829 3.6969 25.0829 4V18.8571H25.6663C25.7514 18.8557 25.8353 18.8361 25.9119 18.7996C25.9884 18.763 26.0559 18.7105 26.1096 18.6457L26.1154 18.6514L30.607 13.3714C30.883 13.0453 31.2728 12.8314 31.7008 12.7712C32.1288 12.711 32.5644 12.8088 32.9228 13.0457L33.7395 13.5771C33.8618 13.6568 33.949 13.7787 33.9836 13.9185C34.0182 14.0583 33.9977 14.2058 33.9261 14.3314Z" fill="#025BB1"/>
<path d="M12.909 32H26.7571L26.3196 28.5714H13.3465L12.909 32Z" fill="#025BB1"/>
<path d="M0 7.42857H3.49994V8.57143H0V7.42857Z" fill="#025BB1"/>
<path d="M1.16665 6.28571H2.3333V9.71429H1.16665V6.28571Z" fill="#025BB1"/>
<path d="M4.66659 5.14286H8.16654V6.28571H4.66659V5.14286Z" fill="#025BB1"/>
<path d="M5.83324 4H6.99989V7.42857H5.83324V4Z" fill="#025BB1"/>
<path d="M0 24.5714H3.49994V25.7143H0V24.5714Z" fill="#025BB1"/>
<path d="M1.16665 23.4286H2.3333V26.8571H1.16665V23.4286Z" fill="#025BB1"/>
<path d="M4.66659 26.8571H8.16654V28H4.66659V26.8571Z" fill="#025BB1"/>
<path d="M5.83324 25.7143H6.99989V29.1429H5.83324V25.7143Z" fill="#025BB1"/>
</svg>

<svg width="34" height="32" fill="none" xmlns="http://www.w3.org/2000/svg"><path d="M9.333 14.857v-2.286H7v2.286a.566.566 0 01-.171.404.59.59 0 01-.412.168H4.083v2.285h2.334a.59.59 0 01.412.168c.11.107.17.252.17.404v2.285h2.334v-2.285c0-.152.062-.297.171-.404a.59.59 0 01.413-.168h2.333V15.43H9.917a.59.59 0 01-.413-.168.566.566 0 01-.17-.404z" fill="#025BB1"/><path d="M15.166 16.571c0-1.356-.41-2.682-1.18-3.81a6.971 6.971 0 00-3.14-2.525 7.135 7.135 0 00-4.045-.39 7.046 7.046 0 00-3.584 1.877 6.815 6.815 0 00-1.916 3.51 6.727 6.727 0 00.398 3.962 6.89 6.89 0 002.579 3.078 7.104 7.104 0 003.889 1.156 7.08 7.08 0 004.947-2.01 6.793 6.793 0 002.052-4.848zM10.5 18.857v2.286a.565.565 0 01-.171.404.59.59 0 01-.412.167h-3.5a.59.59 0 01-.413-.167.565.565 0 01-.17-.404v-2.286H3.5a.59.59 0 01-.413-.167.566.566 0 01-.17-.404v-3.429c0-.151.061-.297.17-.404a.59.59 0 01.413-.167h2.333V12c0-.152.062-.297.171-.404a.59.59 0 01.413-.167h3.5a.59.59 0 01.412.167c.11.107.17.252.17.404v2.286h2.334a.59.59 0 01.413.167c.109.107.17.253.17.404v3.429a.566.566 0 01-.17.404.59.59 0 01-.413.167H10.5zm4.083-7.217V6.857c0-.303-.124-.593-.343-.807a1.183 1.183 0 00-.824-.336 1.188 1.188 0 00-.822.337 1.14 1.14 0 00-.344.806v2.794a8.232 8.232 0 012.333 1.989z" fill="#025BB1"/><path d="M33.926 14.331l-8.72 11.035a.542.542 0 00-.123.348v1.715h-10.5v-1.715a.556.556 0 00-.087-.303l-.957-1.502c-.14-.235-.268-.446-.39-.646-.06-.092-.1-.166-.152-.252a7.966 7.966 0 003.02-4.234 7.811 7.811 0 00-.267-5.16V4c0-.303.123-.594.341-.808a1.184 1.184 0 011.65 0c.22.214.342.505.342.808v11.429h1.167V1.143c0-.303.123-.594.341-.808a1.18 1.18 0 011.65 0c.22.214.342.505.342.808v14.286h1.167V4c0-.303.123-.594.341-.808a1.18 1.18 0 01.825-.335c.31 0 .606.12.825.335.219.214.342.505.342.808v14.857h.583a.594.594 0 00.444-.211l.005.005 4.492-5.28a1.77 1.77 0 012.316-.326l.816.532a.56.56 0 01.187.754zM12.909 32h13.848l-.437-3.429H13.347L12.909 32zM0 7.429h3.5V8.57H0V7.43z" fill="#025BB1"/><path d="M1.167 6.286h1.166v3.428H1.167V6.286zm3.5-1.143h3.5v1.143h-3.5V5.143z" fill="#025BB1"/><path d="M5.833 4H7v3.429H5.833V4zM0 24.571h3.5v1.143H0v-1.143z" fill="#025BB1"/><path d="M1.167 23.429h1.166v3.428H1.167V23.43zm3.5 3.428h3.5V28h-3.5v-1.143z" fill="#025BB1"/><path d="M5.833 25.714H7v3.429H5.833v-3.429z" fill="#025BB1"/></svg>
